X:1
T:Title
%%score ( 1 2 ) { 3 | 4 }
L:1/8
Q:1/4=120
M:4/4
K:C
V:1 treble nm="Church Organ, Unnamed-000"
V:2 treble 
V:3 bass nm="Church Organ, Unnamed-001"
V:4 bass 
V:1
 [G,C]3 [B,D] [CE]2 C2 | [CE]2 [CF]2 [DG]2 [DG]2 | [Cc]2 BA [DG]2 [Ge]2 | [Ad]2 [Gd]2 [Ec]4 | %4
w: By~Joachim~Neander,~1680 * * *||||
 [G,C]3 [B,D] [CE]2 C2 | [CE]2 [CF]2 [DG]2 [DG]2 | [Cc]2 BA [DG]2 [Ge]2 | [Ad]2 [Gd]2 [Ec]4 | %8
w: ||||
 [Ge]3 [Ge] [Gd]2 d-[Fd] | [Ec]2 [Ec]2 [EB]2 [EB]2 | A4 z4 | [Dd]2 [DB]2 [Ec]4- | [Ec]4 z4 |] %13
w: |||||
V:2
 x8 | x8 | z2 C2 z4 | x8 | x8 | x8 | z2 C2 z4 | x8 | z4 z2 .G2 | x8 | C3 B, [CG]2 [Ec]2 | x8 | %12
 x8 |] %13
V:3
 E,3 G, G,2 G,2 | G,2[K:treble] C2 C2 B,2 | C2 C2 B,2 C2 | C2[K:bass] B,2 C4 | E,3 G, G,2 G,2 | %5
 G,2[K:treble] C2 C2 B,2 | C2 C2 B,2 C2 | C2 B,2 C4 | C3 C C2[K:bass] B,2 | C2 A,2 A,2 ^G,2 | %10
 A,3 F, G,2 A,2 | A,2 G,2 G,4- | G,4 z4 |] %13
V:4
 C,3 G,, C,2 E,2 | C,2 A,,2 G,,2 G,2 | A,2 G,F, G,2 C,2 | F,2 G,2 C,4 | C,3 G,, C,2 E,2 | %5
 C,2 A,,2 G,,2 G,2 | A,2 G,F, G,2 C,2 | F,2 G,2 C,4 | C,3 E, G,2 G,2 | A,2 C,D, E,2 E,2 | %10
 F,3 D, E,2 z2 | F,2 z2 C,4- | C,4 z4 |] %13

